src/assets/icons/facility_management.svg

<svg width="13" height="10" viewBox="0 0 13 10" fill="none" xmlns="http://www.w3.org/2000/svg">
<path d="M11.1143 5.62587V5.52391C11.1148 4.88221 10.9867 4.24691 10.7374 3.65562C10.4881 3.06432 10.1227 2.52904 9.66291 2.08145C9.12608 1.55908 8.47221 1.17251 7.75576 0.953957H7.72578C7.22346 0.795707 6.69907 0.718771 6.17247 0.726059C4.91807 0.794911 3.73743 1.34064 2.87225 2.25154C2.00706 3.16243 1.52279 4.36958 1.51855 5.62587C1.11773 5.76687 0.779748 6.04517 0.56446 6.41149C0.349172 6.7778 0.270475 7.20849 0.342307 7.62728C0.414139 8.04606 0.631865 8.4259 0.956922 8.69954C1.28198 8.97317 1.69339 9.12293 2.11829 9.1223H10.5145C10.9394 9.12293 11.3508 8.97317 11.6759 8.69954C12.0009 8.4259 12.2187 8.04606 12.2905 7.62728C12.3623 7.20849 12.2836 6.7778 12.0684 6.41149C11.8531 6.04517 11.5151 5.76687 11.1143 5.62587ZM10.5145 7.92284H2.11829C1.95923 7.92284 1.80668 7.85965 1.69421 7.74718C1.58174 7.63471 1.51855 7.48216 1.51855 7.32311C1.51855 7.16405 1.58174 7.0115 1.69421 6.89903C1.80668 6.78656 1.95923 6.72337 2.11829 6.72337H3.31775C3.47681 6.72337 3.62935 6.66019 3.74182 6.54772C3.85429 6.43525 3.91748 6.2827 3.91748 6.12364C3.91748 5.96458 3.85429 5.81204 3.74182 5.69957C3.62935 5.5871 3.47681 5.52391 3.31775 5.52391H2.71802C2.74537 4.90187 2.9234 4.29579 3.23681 3.75777C3.55021 3.21976 3.98961 2.76593 4.51721 2.43529V4.32445C4.51721 4.48351 4.5804 4.63605 4.69287 4.74852C4.80534 4.86099 4.95788 4.92418 5.11694 4.92418C5.276 4.92418 5.42855 4.86099 5.54102 4.74852C5.65349 4.63605 5.71667 4.48351 5.71667 4.32445V1.9795C5.87946 1.9523 6.04365 1.93428 6.20845 1.92552H6.31641C6.51772 1.92737 6.71845 1.94744 6.91614 1.9855V4.32445C6.91614 4.48351 6.97932 4.63605 7.09179 4.74852C7.20427 4.86099 7.35681 4.92418 7.51587 4.92418C7.67493 4.92418 7.82747 4.86099 7.93994 4.74852C8.05241 4.63605 8.1156 4.48351 8.1156 4.32445V2.4173C8.37 2.56461 8.60734 2.7396 8.82328 2.93907C9.16906 3.27486 9.44386 3.67669 9.63136 4.12072C9.81886 4.56475 9.91525 5.04192 9.9148 5.52391H9.31506C9.156 5.52391 9.00346 5.5871 8.89099 5.69957C8.77852 5.81204 8.71533 5.96458 8.71533 6.12364C8.71533 6.2827 8.77852 6.43525 8.89099 6.54772C9.00346 6.66019 9.156 6.72337 9.31506 6.72337H10.5145C10.6736 6.72337 10.8261 6.78656 10.9386 6.89903C11.0511 7.0115 11.1143 7.16405 11.1143 7.32311C11.1143 7.48216 11.0511 7.63471 10.9386 7.74718C10.8261 7.85965 10.6736 7.92284 10.5145 7.92284Z" fill="#4F9B90"/>
</svg>

<svg xmlns="http://www.w3.org/2000/svg" width="13" height="10" fill="none"><path fill="#4F9B90" d="M11.114 5.626v-.102A4.8 4.8 0 0 0 9.663 2.08 4.7 4.7 0 0 0 7.756.954h-.03A5 5 0 0 0 6.172.726a4.924 4.924 0 0 0-4.653 4.9 1.8 1.8 0 0 0 .6 3.496h8.396a1.8 1.8 0 0 0 .6-3.496m-.6 2.297H2.118a.6.6 0 0 1 0-1.2h1.2a.6.6 0 1 0 0-1.2h-.6a3.84 3.84 0 0 1 1.8-3.088v1.89a.6.6 0 0 0 1.199 0V1.978q.244-.04.491-.053h.108q.303.001.6.06v2.338a.6.6 0 1 0 1.2 0V2.417q.382.223.707.522a3.6 3.6 0 0 1 1.092 2.585h-.6a.6.6 0 0 0 0 1.2h1.2a.6.6 0 1 1 0 1.199"/></svg>
